public/headerImg/adress.svg

<svg width="22" height="23" viewBox="0 0 22 23" fill="none" xmlns="http://www.w3.org/2000/svg">
<g clip-path="url(#clip0_130_55)">
<path fill-rule="evenodd" clip-rule="evenodd" d="M11.3027 6.39844C11.448 6.38654 11.5836 6.32039 11.6824 6.21314C11.7813 6.10588 11.8361 5.96537 11.8361 5.81952C11.8361 5.67367 11.7813 5.53315 11.6824 5.42589C11.5836 5.31864 11.448 5.25249 11.3027 5.24059C11.1652 5.2412 11.0307 5.20101 10.9161 5.12511C10.8015 5.04921 10.7121 4.94101 10.659 4.81421C10.606 4.68742 10.5918 4.54774 10.6182 4.41286C10.6446 4.27798 10.7104 4.15397 10.8074 4.05655C10.9043 3.95912 11.028 3.89265 11.1627 3.86556C11.2975 3.83848 11.4372 3.85199 11.5643 3.90439C11.6914 3.95679 11.8 4.04572 11.8765 4.15992C11.953 4.27411 11.9938 4.40844 11.9939 4.54588C11.9919 4.62278 12.0053 4.6993 12.0334 4.77093C12.0614 4.84256 12.1035 4.90785 12.1572 4.96294C12.2109 5.01804 12.2751 5.06183 12.346 5.09173C12.4168 5.12163 12.493 5.13703 12.5699 5.13703C12.6469 5.13703 12.723 5.12163 12.7939 5.09173C12.8648 5.06183 12.9289 5.01804 12.9826 4.96294C13.0363 4.90785 13.0784 4.84256 13.1065 4.77093C13.1345 4.6993 13.1479 4.62278 13.1459 4.54588C13.1441 4.18171 13.0344 3.82625 12.8308 3.52435C12.6271 3.22245 12.3386 2.98764 12.0016 2.84956C11.6647 2.71147 11.2944 2.67629 10.9374 2.74846C10.5805 2.82063 10.2529 2.99691 9.99603 3.25506C9.73918 3.51321 9.56454 3.84167 9.49417 4.19897C9.4238 4.55627 9.46084 4.92642 9.60062 5.26269C9.7404 5.59896 9.97666 5.8863 10.2796 6.08843C10.5825 6.29056 10.9385 6.39844 11.3027 6.39844ZM19.2369 3.88834H18.2688C18.1179 3.89224 17.9745 3.95493 17.8691 4.06304C17.7638 4.17115 17.7048 4.31612 17.7048 4.46707C17.7048 4.61802 17.7638 4.763 17.8691 4.87111C17.9745 4.97922 18.1179 5.0419 18.2688 5.04581H19.2369C19.7297 5.04642 20.2021 5.24245 20.5505 5.5909C20.899 5.93936 21.095 6.41178 21.0956 6.90457V11.0666H15.9612C15.8852 11.0668 15.8099 11.082 15.7398 11.1113C15.6696 11.1406 15.606 11.1834 15.5524 11.2374C15.4989 11.2914 15.4566 11.3554 15.4278 11.4258C15.3991 11.4961 15.3845 11.5715 15.385 11.6475V16.7204H8.57378C8.47461 16.3469 8.27886 16.0061 8.0062 15.7323C7.73354 15.4585 7.3936 15.2613 7.02055 15.1606V11.742C7.0129 11.5772 6.94901 11.4199 6.83951 11.2965C6.73001 11.173 6.58152 11.0908 6.41878 11.0635H1.51048V6.90612C1.5111 6.41333 1.70713 5.94091 2.05558 5.59245C2.40403 5.244 2.87646 5.04797 3.36924 5.04736H4.31837C4.46927 5.04345 4.61268 4.98077 4.71803 4.87266C4.82337 4.76455 4.88233 4.61957 4.88233 4.46862C4.88233 4.31767 4.82337 4.17269 4.71803 4.06459C4.61268 3.95648 4.46927 3.89379 4.31837 3.88989H3.36924C2.57029 3.89194 1.80478 4.21081 1.24063 4.77656C0.676486 5.3423 0.359778 6.10871 0.359986 6.90767V18.9277C0.359675 19.7267 0.676338 20.4932 1.2405 21.059C1.80465 21.6249 2.57023 21.9438 3.36924 21.9458H19.2384C20.0375 21.9439 20.8033 21.625 21.3676 21.0592C21.9319 20.4934 22.2487 19.7268 22.2485 18.9277V6.90612C22.2486 6.10679 21.9315 5.34009 21.3669 4.7743C20.8023 4.20851 20.0362 3.88988 19.2369 3.88834ZM1.51048 12.2222H5.87044V15.1714C5.50455 15.2765 5.17215 15.4747 4.90569 15.7465C4.63923 16.0184 4.44782 16.3548 4.35013 16.7227H1.51048V12.2222ZM5.87044 20.7884H3.3677C2.87491 20.7877 2.40248 20.5917 2.05403 20.2433C1.70558 19.8948 1.50955 19.4224 1.50893 18.9296V17.8809H4.35478C4.45547 18.2437 4.64755 18.5746 4.91264 18.8419C5.17774 19.1093 5.50698 19.3041 5.86889 19.4078V20.7903L5.87044 20.7884ZM15.385 20.7884H7.02055V19.0458C7.03106 19.0023 7.03665 18.9577 7.0372 18.9129C7.03735 18.8371 7.02257 18.762 6.9937 18.6919C6.96482 18.6218 6.92242 18.5581 6.86891 18.5043C6.81541 18.4506 6.75184 18.408 6.68185 18.3788C6.61186 18.3496 6.53681 18.3346 6.46099 18.3344C6.25384 18.3361 6.05086 18.2762 5.8778 18.1624C5.70475 18.0485 5.56941 17.8858 5.48897 17.6949C5.40852 17.504 5.3866 17.2935 5.42597 17.0901C5.46535 16.8868 5.56425 16.6997 5.71013 16.5526C5.85601 16.4055 6.04229 16.3051 6.24534 16.2641C6.44838 16.223 6.65904 16.2432 6.85059 16.3221C7.04214 16.401 7.20594 16.535 7.3212 16.7071C7.43647 16.8792 7.49801 17.0817 7.49802 17.2889C7.49751 17.3649 7.51202 17.4402 7.54071 17.5106C7.56941 17.581 7.61173 17.645 7.66523 17.6989C7.71874 17.7529 7.78238 17.7958 7.8525 17.8251C7.92263 17.8544 7.99785 17.8696 8.07385 17.8697C8.20991 17.8184 8.36072 17.8227 8.49362 17.8817H15.383V20.7911L15.385 20.7884ZM21.0949 18.9296C21.0943 19.4224 20.8982 19.8948 20.5498 20.2433C20.2013 20.5917 19.7289 20.7877 19.2361 20.7884H16.5363V17.879H21.0941V18.9277L21.0949 18.9296ZM21.0949 16.7223H16.537V12.2222H21.0949V16.7204V16.7223ZM18.1774 14.5557C18.3149 14.5564 18.4496 14.5162 18.5643 14.4403C18.679 14.3644 18.7686 14.2561 18.8217 14.1292C18.8748 14.0023 18.8891 13.8625 18.8626 13.7275C18.8362 13.5925 18.7703 13.4683 18.6732 13.3709C18.5761 13.2734 18.4523 13.2069 18.3174 13.1798C18.1826 13.1528 18.0427 13.1664 17.9156 13.2189C17.7884 13.2715 17.6797 13.3606 17.6033 13.4749C17.5268 13.5893 17.4861 13.7238 17.4862 13.8614C17.486 13.9524 17.5037 14.0425 17.5383 14.1266C17.5729 14.2107 17.6238 14.2872 17.688 14.3517C17.7522 14.4162 17.8284 14.4674 17.9124 14.5024C17.9964 14.5374 18.0864 14.5555 18.1774 14.5557ZM6.94736 6.70746L10.4325 14.129C10.5093 14.2936 10.6315 14.433 10.7848 14.5306C10.938 14.6282 11.1159 14.6801 11.2976 14.6801C11.4793 14.6801 11.6573 14.6282 11.8105 14.5306C11.9637 14.433 12.0859 14.2936 12.1627 14.129L15.6479 6.7094C15.6584 6.68711 15.6676 6.66422 15.6754 6.64086C15.9855 5.918 16.1118 5.12959 16.0429 4.34604C15.974 3.5625 15.7122 2.8082 15.2807 2.15052C14.8493 1.49283 14.2617 0.952226 13.5704 0.576978C12.8791 0.20173 12.1057 0.0035191 11.3191 4.64311e-05C10.5326 -0.00342623 9.75739 0.187947 9.06282 0.557077C8.36825 0.926206 7.77591 1.4616 7.33868 2.11545C6.90146 2.7693 6.63297 3.52126 6.55718 4.30416C6.4814 5.08707 6.60068 5.87656 6.90438 6.60213C6.916 6.63829 6.93037 6.6735 6.94736 6.70746ZM11.3015 1.11026C11.9047 1.11483 12.4974 1.26923 13.0261 1.55959C13.5549 1.84996 14.0032 2.26718 14.3307 2.77374C14.6583 3.2803 14.8548 3.86033 14.9026 4.46167C14.9504 5.063 14.8481 5.6668 14.6047 6.21876L14.5942 6.24548L11.2996 13.2584L8.00337 6.24355V6.23812C7.99717 6.21758 7.9898 6.19741 7.9813 6.17771C7.74621 5.62625 7.65096 5.02526 7.704 4.42813C7.75705 3.831 7.95676 3.25621 8.28538 2.75483C8.61401 2.25344 9.06137 1.84098 9.58775 1.55408C10.1141 1.26719 10.7032 1.11473 11.3027 1.11026H11.3015Z" fill="#FF5F1E"/>
</g>
<defs>
<clipPath id="clip0_130_55">
<rect width="22" height="22" fill="white" transform="translate(0 0.5)"/>
</clipPath>
</defs>
</svg>

<svg width="22" height="23" fill="none" xmlns="http://www.w3.org/2000/svg"><g clip-path="url(#a)"><path fill-rule="evenodd" clip-rule="evenodd" d="M11.303 6.398a.58.58 0 0 0 0-1.157.694.694 0 1 1 .69-.695.575.575 0 1 0 1.153 0 1.843 1.843 0 1 0-1.843 1.852Zm7.934-2.51h-.968a.58.58 0 0 0 0 1.158h.968a1.86 1.86 0 0 1 1.859 1.859v4.162H15.96a.578.578 0 0 0-.576.58v5.073H8.574a2.2 2.2 0 0 0-1.553-1.56v-3.418a.722.722 0 0 0-.602-.679H1.51V6.906a1.861 1.861 0 0 1 1.86-1.859h.948a.579.579 0 0 0 0-1.157H3.37A3.017 3.017 0 0 0 .36 6.908v12.02a3.017 3.017 0 0 0 3.01 3.018h15.868a3.017 3.017 0 0 0 3.01-3.018V6.906a3.018 3.018 0 0 0-3.011-3.018ZM1.51 12.222h4.36v2.95a2.203 2.203 0 0 0-1.52 1.55H1.51v-4.5Zm4.36 8.566H3.368a1.862 1.862 0 0 1-1.86-1.858v-1.05h2.847a2.2 2.2 0 0 0 1.514 1.528v1.382l.001-.002Zm9.515 0H7.021v-1.742a.577.577 0 0 0-.56-.711 1.046 1.046 0 1 1 1.037-1.046.577.577 0 0 0 .576.58.553.553 0 0 1 .42.013h6.889v2.91l.002-.004Zm5.71-1.858a1.861 1.861 0 0 1-1.859 1.858h-2.7V17.88h4.558v1.051Zm0-2.208h-4.558v-4.5h4.558v4.5Zm-2.918-2.166a.695.695 0 1 0 .007-1.39.695.695 0 0 0-.007 1.39ZM6.947 6.707l3.485 7.422a.955.955 0 0 0 1.73 0l3.486-7.42a4.763 4.763 0 1 0-8.744-.107.744.744 0 0 0 .043.105Zm4.355-5.597a3.64 3.64 0 0 1 3.303 5.109l-.01.026-3.295 7.013-3.297-7.014v-.006a.564.564 0 0 0-.022-.06 3.64 3.64 0 0 1 3.322-5.068H11.3Z" fill="#FF5F1E"/></g><defs><clipPath id="a"><path fill="#fff" transform="translate(0 .5)" d="M0 0h22v22H0z"/></clipPath></defs></svg>
